X:1
T:Title
%%score { ( 1 3 ) | ( 2 4 ) }
L:1/8
M:6/8
K:F
V:1 treble nm="Grand Piano"
V:3 treble 
V:2 bass 
V:4 bass 
V:1
 z3 z2[Q:1/4=81] c/c/ | cdc [DB]AG | F3- F2 F/G/ | ABA AGF |[M:5/8] [EG]-[EG]- [EG]3 | %5
[M:1/8] A/B/ |[M:3/4] cd c[GB] [FA][EG] | F4- F z/ G/ | AB A[DG] FE |[M:5/8] F-F- F3 | %10
[M:1/8] c/c/ |[M:3/4] [Af]4 z2 | A4 z2 | [EG][FA] [GB] [FA]2 [EG] |[M:5/8] [FA]-[FA]- [FA]3 | %15
[M:1/8] c/c/ |[M:3/4] [Af]2 [Af] [CFc]2 [DFB] | [CFA]2 [B,EG] [A,F]3 | %18
 [B,DG][CFA] [DFB] [CFA]2 [B,EG][Q:1/4=78][Q:1/4=76][Q:1/4=73][Q:1/4=71][Q:1/4=68][Q:1/4=66][Q:1/4=63] | %19
[M:5/8] [A,F]-[A,F]- [A,F]3 |] %20
V:2
 z3 z2 [F,A,F]/[F,A,F]/ | .A,3 z3 | [F,A,C]3- [F,A,C]2 [F,A,C]/[F,B,C]/ | .[F,F]3 .C3 | %4
[M:5/8] [C,C]-[C,C]- [C,C]3 |[M:1/8] C/ z/ |[M:3/4] [F,F]2 z2 z2 | z2 z2 z .A, | .C2 z2 z2 | %9
[M:5/8] [F,A,C]-[F,A,C]- [F,A,C]3 |[M:1/8] [F,A,F]/[F,A,F]/ |[M:3/4] [F,C]2 F, [F,A,F]2 [F,B,F] | %12
 F4 z2 | [C,C]2 [C,C] [C,C]2 [C,C] |[M:5/8] [F,C]2 F, F,2 |[M:1/8] [F,A,F]/[F,A,F]/ | %16
[M:3/4] [F,C]2 [F,C] A,,2 B,, | C,2 ^C, D,3 | B,,A,, G,, C,2 C, |[M:5/8] F,-F,- F,3 |] %20
V:3
 x6 | z3 .F3 | x6 | x6 |[M:5/8] x5 |[M:1/8] x |[M:3/4] x6 | z2 z2 z F | x6 |[M:5/8] x5 |[M:1/8] x | %11
[M:3/4] z2 C c2 B | z2 C F3 | x6 |[M:5/8] z2 C C2 |[M:1/8] x |[M:3/4] x6 | x6 | x6 |[M:5/8] x5 |] %20
V:4
 x6 | [F,F]-[F,B,F][F,A,F] B,,[C,C][C,B,C] | x6 | CD[F,CF] F,E,[D,=B,D] |[M:5/8] x5 | %5
[M:1/8] [F,F]/-[F,B,F]/ |[M:3/4] A,B, [F,A,F] [C,C]2 [C,B,] | [F,A,]4- [F,A,]F,/-[F,B,]/ | %8
 [F,F]-[F,DF] [F,CF][B,,B,] [C,A,C][C,G,C] |[M:5/8] x5 |[M:1/8] x |[M:3/4] x6 | %12
 [F,C]2 F, [F,A,C]3 | x6 |[M:5/8] x5 |[M:1/8] x |[M:3/4] x6 | x6 | x6 |[M:5/8] x5 |] %20

